src/assets/duotone/Decred.svg

<svg width="24" height="24" viewBox="0 0 24 24"  xmlns="http://www.w3.org/2000/svg">
<path d="M5.65002 7.65L2.85004 4.85C2.54004 4.54 2.76002 4 3.21002 4H6.80002C6.93002 4 7.06002 4.05 7.15002 4.15L12.15 9.15C12.46 9.46 12.24 10 11.8 10H8.51004C6.58004 10 5.01004 11.57 5.01004 13.5C5.01004 15.43 6.58004 17 8.51004 17H10.01L12.16 19.15C12.47 19.46 12.25 20 11.81 20H8.52002C4.93002 20 2.02002 17.09 2.02002 13.5C2.02002 11.01 3.42002 8.84 5.49002 7.75L5.65002 7.65Z" />
<path opacity="0.4" d="M18.3497 16.35L21.1497 19.15C21.4597 19.46 21.2397 20 20.7997 20H17.2097C17.0797 20 16.9497 19.95 16.8597 19.85L11.8597 14.85C11.5497 14.54 11.7697 14 12.2097 14H15.4997C17.4297 14 18.9997 12.43 18.9997 10.5C18.9997 8.57 17.4297 7 15.4997 7H13.9997L11.8497 4.85C11.5397 4.54 11.7597 4 12.2097 4H15.4997C19.0897 4 21.9997 6.91 21.9997 10.5C21.9997 12.99 20.5997 15.16 18.5297 16.25L18.3497 16.35Z" />
</svg>

<?xml version="1.0" encoding="UTF-8"?>
<svg width="24" height="24" viewBox="0 0 24 24" xmlns="http://www.w3.org/2000/svg">
 <path d="m5.65 7.65-2.8-2.8c-0.31-0.31-0.09002-0.85 0.35998-0.85h3.59c0.13 0 0.26 0.05 0.35 0.15l5 5c0.31 0.31 0.09 0.85-0.35 0.85h-3.29c-1.93 0-3.5 1.57-3.5 3.5s1.57 3.5 3.5 3.5h1.5l2.15 2.15c0.31 0.31 0.09 0.85-0.35 0.85h-3.29c-3.59 0-6.5-2.91-6.5-6.5 0-2.49 1.4-4.66 3.47-5.75l0.16-0.1z"/>
 <path d="m18.35 16.35 2.8 2.8c0.31 0.31 0.09 0.85-0.35 0.85h-3.59c-0.13 0-0.26-0.05-0.35-0.15l-5-5c-0.31-0.31-0.09-0.85 0.35-0.85h3.29c1.93 0 3.5-1.57 3.5-3.5s-1.57-3.5-3.5-3.5h-1.5l-2.15-2.15c-0.31-0.31-0.09-0.85 0.36-0.85h3.29c3.59 0 6.5 2.91 6.5 6.5 0 2.49-1.4 4.66-3.47 5.75l-0.18 0.1z" opacity=".4"/>
</svg>
